X:217
T: LASSET UNS SCHLINGEN DEM FRUEHLING BLUEMELEIN
N: F0371
O: Europa, Mitteleuropa, Deutschland
R: Jugend - Lied, Natur, Jahreszeiten, Fruehling
M: 3/4
L: 1/8
K: D
 | A,2F,2A,2 | A,2G,F,G,2 |
G,2E,2G,2 | F,E,F,G,A,2 |
A,2F,2A,2 | D3CB,2 |
A,2B,2^G,2 | A,4z2 |
A,3G,F,2 | A,3G,F,2 |
D2C2B,2 | D2C2B,2 |
A,2A,2A,2 | F3ED2 |
E3DC2 | E2D2z2

@@@ Tune index: 5648
